poi/svg/2314.svg

<?xml version="1.0" encoding="UTF-8" standalone="no"?>
<svg
   xmlns:dc="http://purl.org/dc/elements/1.1/"
   xmlns:cc="http://creativecommons.org/ns#"
   xmlns:rdf="http://www.w3.org/1999/02/22-rdf-syntax-ns#"
   xmlns:svg="http://www.w3.org/2000/svg"
   xmlns="http://www.w3.org/2000/svg"
   xmlns:sodipodi="http://sodipodi.sourceforge.net/DTD/sodipodi-0.dtd"
   xmlns:inkscape="http://www.inkscape.org/namespaces/inkscape"
   inkscape:version="1.0 (4035a4fb49, 2020-05-01)"
   sodipodi:docname="2314.svg"
   id="svg20"
   version="1.2"
   viewBox="0 0 42.519639 42.519639"
   height="14.999999mm"
   width="14.999999mm">
  <metadata
     id="metadata24">
    <rdf:RDF>
      <cc:Work
         rdf:about="">
        <dc:format>image/svg+xml</dc:format>
        <dc:type
           rdf:resource="http://purl.org/dc/dcmitype/StillImage" />
        <dc:title>Qt SVG Document</dc:title>
      </cc:Work>
    </rdf:RDF>
  </metadata>
  <sodipodi:namedview
     inkscape:current-layer="svg20"
     inkscape:window-maximized="0"
     inkscape:window-y="0"
     inkscape:window-x="0"
     inkscape:cy="28.346482"
     inkscape:cx="28.346482"
     inkscape:zoom="5.8410537"
     showgrid="false"
     id="namedview22"
     inkscape:window-height="480"
     inkscape:window-width="1034"
     inkscape:pageshadow="2"
     inkscape:pageopacity="0"
     guidetolerance="10"
     gridtolerance="10"
     objecttolerance="10"
     borderopacity="1"
     bordercolor="#666666"
     pagecolor="#ffffff" />
  <title
     id="title2">Qt SVG Document</title>
  <desc
     id="desc4">Generated with Qt</desc>
  <defs
     id="defs6" />
  <g
     transform="translate(5.25984,5.25984)"
     id="g18"
     stroke-linejoin="bevel"
     stroke-linecap="square"
     fill-rule="evenodd"
     stroke-width="1"
     stroke="#000000"
     fill="none">
    <g
       id="g10"
       font-style="normal"
       font-weight="400"
       font-size="7.8px"
       font-family="'MS Shell Dlg 2'"
       stroke="none"
       fill-opacity="1"
       fill="#ef4b65">
      <path
         id="path8"
         d="M 37.2598,16 C 37.2598,27.7415 27.7415,37.2598 16,37.2598 4.25851,37.2598 -5.25984,27.7415 -5.25984,16 -5.25984,4.25851 4.25851,-5.25984 16,-5.25984 27.7415,-5.25984 37.2598,4.25851 37.2598,16"
         fill-rule="evenodd"
         vector-effect="non-scaling-stroke" />
    </g>
    <g
       id="g14"
       font-style="normal"
       font-weight="400"
       font-size="7.8px"
       font-family="'MS Shell Dlg 2'"
       transform="translate(16.5669,13.1654)"
       stroke="none"
       fill-opacity="0.94902"
       fill="#ffffff">
      <path
         id="path12"
         d="m -1.66357,10.3457 c 1.469722,0 2.79248,-0.1785 3.96826,-0.5354 C 3.48047,9.45337 4.34131,8.98796 4.88721,8.41406 v 5.33304 c 0,0.3079 -0.17147,0.6054 -0.51441,0.8923 -0.34293,0.287 -0.80835,0.5389 -1.39624,0.7559 -0.58789,0.2169 -1.28426,0.3884 -2.089109,0.5144 -0.8048501,0.1259 -1.655192,0.1889 -2.551021,0.1889 -0.88184,0 -1.71818,-0.063 -2.50904,-0.1889 -0.79085,-0.126 -1.48022,-0.2975 -2.06811,-0.5144 -0.58789,-0.217 -1.05331,-0.4689 -1.39624,-0.7559 C -7.9799,14.3525 -8.15137,14.055 -8.15137,13.7471 V 8.41406 c 0.5739,0.5739 1.44173,1.03931 2.60352,1.39624 1.16178,0.3569 2.45654,0.5354 3.88428,0.5354 M -1.74756,1.40137 c 1.231772,0 2.239585,-0.23096 3.02344,-0.692874 C 1.19189,1.14242 1.10441,1.62533 1.01343,2.15723 0.922445,2.68913 0.84196,3.18953 0.771973,3.65845 0.701986,4.12736 0.645996,4.54028 0.604004,4.89722 0.562012,5.25415 0.541016,5.47461 0.541016,5.55859 c 0,0.29395 -0.223959,0.5354 -0.671875,0.72437 -0.447917,0.18896 -0.986821,0.28345 -1.616701,0.28345 -0.57389,0 -1.0743,-0.09449 -1.50122,-0.28345 C -3.6757,6.09399 -3.88916,5.85254 -3.88916,5.55859 -3.88916,5.47461 -3.91715,5.25415 -3.97314,4.89722 -4.02913,4.54028 -4.10262,4.12736 -4.1936,3.65845 -4.28459,3.18953 -4.37207,2.68913 -4.45605,2.15723 -4.54004,1.62533 -4.61003,1.14242 -4.66602,0.708496 -3.92415,1.17041 -2.95133,1.40137 -1.74756,1.40137 m 3.61133,-1.931643 c 0,0.363932 -0.34994,0.689371 -1.049805,0.976318 -0.69987,0.286947 -1.553711,0.43042 -2.561525,0.43042 -0.93782,0 -1.76717,-0.143473 -2.48804,-0.43042 -0.72086,-0.286947 -1.08129,-0.612386 -1.08129,-0.976318 v -0.356934 c 0,-0.391923 0.36043,-0.724363 1.08129,-0.997313 0.72087,-0.27295 1.55022,-0.40943 2.48804,-0.40943 1.007814,0 1.861655,0.13648 2.561525,0.40943 0.699865,0.27295 1.049805,0.60539 1.049805,0.997313 v 0.356934 M -1.74756,-1.51709 c -0.57389,0 -1.10929,0.06999 -1.6062,0.20996 -0.49691,0.13998 -0.87834,0.335939 -1.14429,0.587892 0.26595,0.237955 0.64738,0.42692 1.14429,0.566894 0.49691,0.1399742 1.03231,0.2099612 1.6062,0.2099612 0.62988,0 1.18978,-0.069987 1.6796889,-0.2099612 C 0.422038,-0.292318 0.778971,-0.481283 1.00293,-0.719238 0.778971,-0.971191 0.422038,-1.16715 -0.0678711,-1.30713 -0.55778,-1.4471 -1.11768,-1.51709 -1.74756,-1.51709 M 10.5562,0.708496 H 9.90527 V 5.55859 H 8.79248 V 0.708496 H 5.87402 V 1.2334 h -1.0708 v 4.07324 c 0.33594,0.34994 0.50391,0.70687 0.50391,1.0708 0,0.43392 -0.17847,0.83635 -0.5354,1.20728 C 4.41479,7.95565 3.92139,8.27759 3.2915,8.55054 2.66162,8.82349 1.92326,9.04744 1.07642,9.22241 0.229574,9.39738 -0.683757,9.48486 -1.66357,9.48486 -2.6014,9.48486 -3.49373,9.39738 -4.34058,9.22241 -5.18742,9.04744 -5.92578,8.82349 -6.55566,8.55054 -7.18555,8.27759 -7.67896,7.95565 -8.03589,7.58472 -8.39282,7.21379 -8.57129,6.81136 -8.57129,6.37744 c 0,-0.36393 0.16797,-0.72086 0.50391,-1.0708 V 1.2334 H -9.26416 V 0.708496 H -10.5029 V 0.0576172 h 1.23874 V -0.530273 h 1.19678 V -2.94482 h -3.44332 l 4.95504,-4.22022 h 9.93115 l 4.95508,4.22022 H 4.80322 v 2.414547 h 1.0708 V 0.0576172 H 8.79248 V -0.719238 H 9.90527 V 0.0576172 H 10.5562 V 0.708496 M -1.66357,7.88916 c 0.78385,0 1.511715,-0.04899 2.18359,-0.14697 C 1.19189,7.64421 1.77979,7.50773 2.28369,7.33276 2.7876,7.1578 3.18302,6.95483 3.46997,6.72388 3.75692,6.49292 3.90039,6.25146 3.90039,5.99951 3.90039,5.59359 3.62744,5.23315 3.08154,4.91821 2.53564,4.60327 1.84277,4.37581 1.00293,4.23584 1.00293,4.15186 1.02043,4.05037 1.05542,3.9314 1.09041,3.81242 1.10791,3.68294 1.10791,3.54297 1.58382,3.62695 2.02474,3.74243 2.43066,3.8894 2.83659,4.03638 3.20752,4.17985 3.54346,4.31982 V -2.94482 C 3.20752,-3.14079 2.7806,-3.31576 2.2627,-3.46973 1.82878,-3.6097 1.28988,-3.72868 0.645996,-3.82666 0.00211589,-3.92464 -0.732747,-3.97363 -1.55859,-3.97363 c -0.83985,0 -1.58171,0.04899 -2.22559,0.14697 -0.64388,0.09798 -1.18278,0.21696 -1.6167,0.35693 -0.5179,0.15397 -0.95882,0.32894 -1.32275,0.52491 v 7.26464 c 0.30794,-0.13997 0.65787,-0.28344 1.0498,-0.43042 0.39193,-0.14697 0.81185,-0.26245 1.25977,-0.34643 0.05599,0.13997 0.08398,0.26945 0.08398,0.38843 0,0.11897 0,0.22046 0,0.30444 -0.82584,0.13997 -1.50472,0.36743 -2.03662,0.68237 -0.5319,0.31494 -0.79785,0.67538 -0.79785,1.0813 0,0.25195 0.14347,0.49341 0.43042,0.72437 0.28695,0.23095 0.68237,0.43392 1.18628,0.60888 0.5039,0.17497 1.0918,0.31145 1.76367,0.40943 0.67188,0.09798 1.37874,0.14697 2.12061,0.14697"
         fill-rule="evenodd"
         vector-effect="none" />
    </g>
    <g
       id="g16"
       font-style="normal"
       font-weight="400"
       font-size="7.8px"
       font-family="'MS Shell Dlg 2'"
       stroke="none"
       fill-opacity="1"
       fill="#ef4b65" />
  </g>
</svg>

<?xml version="1.0" encoding="UTF-8" standalone="no"?>
<svg width="11.2889mm" height="11.2889mm"
 viewBox="0 0 32 32"
 xmlns="http://www.w3.org/2000/svg" xmlns:xlink="http://www.w3.org/1999/xlink"  version="1.2" baseProfile="tiny">
<title>Qt SVG Document</title>
<desc>Generated with Qt</desc>
<defs>
</defs>
<g fill="none" stroke="black" stroke-width="1" fill-rule="evenodd" stroke-linecap="square" stroke-linejoin="bevel" >

<g fill="#ef4b65" fill-opacity="1" stroke="none" transform="matrix(1,0,0,1,0,0)"
font-family="MS Shell Dlg 2" font-size="7.8" font-weight="400" font-style="normal" 
>
<path vector-effect="non-scaling-stroke" fill-rule="evenodd" d="M37.2598,16 C37.2598,27.7415 27.7415,37.2598 16,37.2598 C4.25851,37.2598 -5.25984,27.7415 -5.25984,16 C-5.25984,4.25851 4.25851,-5.25984 16,-5.25984 C27.7415,-5.25984 37.2598,4.25851 37.2598,16 "/>
</g>

<g fill="#ffffff" fill-opacity="0.94902" stroke="none" transform="matrix(1,0,0,1,16.5669,13.1654)"
font-family="MS Shell Dlg 2" font-size="7.8" font-weight="400" font-style="normal" 
>
<path vector-effect="none" fill-rule="evenodd" d="M-1.66357,10.3457 C-0.193848,10.3457 1.12891,10.1672 2.30469,9.8103 C3.48047,9.45337 4.34131,8.98796 4.88721,8.41406 L4.88721,13.7471 C4.88721,14.055 4.71574,14.3525 4.3728,14.6394 C4.02987,14.9264 3.56445,15.1783 2.97656,15.3953 C2.38867,15.6122 1.6923,15.7837 0.887451,15.9097 C0.0826009,16.0356 -0.767741,16.0986 -1.66357,16.0986 C-2.54541,16.0986 -3.38175,16.0356 -4.17261,15.9097 C-4.96346,15.7837 -5.65283,15.6122 -6.24072,15.3953 C-6.82861,15.1783 -7.29403,14.9264 -7.63696,14.6394 C-7.9799,14.3525 -8.15137,14.055 -8.15137,13.7471 L-8.15137,8.41406 C-7.57747,8.98796 -6.70964,9.45337 -5.54785,9.8103 C-4.38607,10.1672 -3.09131,10.3457 -1.66357,10.3457 M-1.74756,1.40137 C-0.515788,1.40137 0.492025,1.17041 1.27588,0.708496 C1.19189,1.14242 1.10441,1.62533 1.01343,2.15723 C0.922445,2.68913 0.84196,3.18953 0.771973,3.65845 C0.701986,4.12736 0.645996,4.54028 0.604004,4.89722 C0.562012,5.25415 0.541016,5.47461 0.541016,5.55859 C0.541016,5.85254 0.317057,6.09399 -0.130859,6.28296 C-0.578776,6.47192 -1.11768,6.56641 -1.74756,6.56641 C-2.32145,6.56641 -2.82186,6.47192 -3.24878,6.28296 C-3.6757,6.09399 -3.88916,5.85254 -3.88916,5.55859 C-3.88916,5.47461 -3.91715,5.25415 -3.97314,4.89722 C-4.02913,4.54028 -4.10262,4.12736 -4.1936,3.65845 C-4.28459,3.18953 -4.37207,2.68913 -4.45605,2.15723 C-4.54004,1.62533 -4.61003,1.14242 -4.66602,0.708496 C-3.92415,1.17041 -2.95133,1.40137 -1.74756,1.40137 M1.86377,-0.530273 C1.86377,-0.166341 1.51383,0.159098 0.813965,0.446045 C0.114095,0.732992 -0.739746,0.876465 -1.74756,0.876465 C-2.68538,0.876465 -3.51473,0.732992 -4.2356,0.446045 C-4.95646,0.159098 -5.31689,-0.166341 -5.31689,-0.530273 L-5.31689,-0.887207 C-5.31689,-1.27913 -4.95646,-1.61157 -4.2356,-1.88452 C-3.51473,-2.15747 -2.68538,-2.29395 -1.74756,-2.29395 C-0.739746,-2.29395 0.114095,-2.15747 0.813965,-1.88452 C1.51383,-1.61157 1.86377,-1.27913 1.86377,-0.887207 L1.86377,-0.530273 M-1.74756,-1.51709 C-2.32145,-1.51709 -2.85685,-1.4471 -3.35376,-1.30713 C-3.85067,-1.16715 -4.2321,-0.971191 -4.49805,-0.719238 C-4.2321,-0.481283 -3.85067,-0.292318 -3.35376,-0.152344 C-2.85685,-0.0123698 -2.32145,0.0576172 -1.74756,0.0576172 C-1.11768,0.0576172 -0.55778,-0.0123698 -0.0678711,-0.152344 C0.422038,-0.292318 0.778971,-0.481283 1.00293,-0.719238 C0.778971,-0.971191 0.422038,-1.16715 -0.0678711,-1.30713 C-0.55778,-1.4471 -1.11768,-1.51709 -1.74756,-1.51709 M10.5562,0.708496 L9.90527,0.708496 L9.90527,5.55859 L8.79248,5.55859 L8.79248,0.708496 L5.87402,0.708496 L5.87402,1.2334 L4.80322,1.2334 L4.80322,5.30664 C5.13916,5.65658 5.30713,6.01351 5.30713,6.37744 C5.30713,6.81136 5.12866,7.21379 4.77173,7.58472 C4.41479,7.95565 3.92139,8.27759 3.2915,8.55054 C2.66162,8.82349 1.92326,9.04744 1.07642,9.22241 C0.229574,9.39738 -0.683757,9.48486 -1.66357,9.48486 C-2.6014,9.48486 -3.49373,9.39738 -4.34058,9.22241 C-5.18742,9.04744 -5.92578,8.82349 -6.55566,8.55054 C-7.18555,8.27759 -7.67896,7.95565 -8.03589,7.58472 C-8.39282,7.21379 -8.57129,6.81136 -8.57129,6.37744 C-8.57129,6.01351 -8.40332,5.65658 -8.06738,5.30664 L-8.06738,1.2334 L-9.26416,1.2334 L-9.26416,0.708496 L-10.5029,0.708496 L-10.5029,0.0576172 L-9.26416,0.0576172 L-9.26416,-0.530273 L-8.06738,-0.530273 L-8.06738,-2.94482 L-11.5107,-2.94482 L-6.55566,-7.16504 L3.37549,-7.16504 L8.33057,-2.94482 L4.80322,-2.94482 L4.80322,-0.530273 L5.87402,-0.530273 L5.87402,0.0576172 L8.79248,0.0576172 L8.79248,-0.719238 L9.90527,-0.719238 L9.90527,0.0576172 L10.5562,0.0576172 L10.5562,0.708496 M-1.66357,7.88916 C-0.87972,7.88916 -0.151855,7.84017 0.52002,7.74219 C1.19189,7.64421 1.77979,7.50773 2.28369,7.33276 C2.7876,7.1578 3.18302,6.95483 3.46997,6.72388 C3.75692,6.49292 3.90039,6.25146 3.90039,5.99951 C3.90039,5.59359 3.62744,5.23315 3.08154,4.91821 C2.53564,4.60327 1.84277,4.37581 1.00293,4.23584 C1.00293,4.15186 1.02043,4.05037 1.05542,3.9314 C1.09041,3.81242 1.10791,3.68294 1.10791,3.54297 C1.58382,3.62695 2.02474,3.74243 2.43066,3.8894 C2.83659,4.03638 3.20752,4.17985 3.54346,4.31982 L3.54346,-2.94482 C3.20752,-3.14079 2.7806,-3.31576 2.2627,-3.46973 C1.82878,-3.6097 1.28988,-3.72868 0.645996,-3.82666 C0.00211589,-3.92464 -0.732747,-3.97363 -1.55859,-3.97363 C-2.39844,-3.97363 -3.1403,-3.92464 -3.78418,-3.82666 C-4.42806,-3.72868 -4.96696,-3.6097 -5.40088,-3.46973 C-5.91878,-3.31576 -6.3597,-3.14079 -6.72363,-2.94482 L-6.72363,4.31982 C-6.41569,4.17985 -6.06576,4.03638 -5.67383,3.8894 C-5.2819,3.74243 -4.86198,3.62695 -4.41406,3.54297 C-4.35807,3.68294 -4.33008,3.81242 -4.33008,3.9314 C-4.33008,4.05037 -4.33008,4.15186 -4.33008,4.23584 C-5.15592,4.37581 -5.8348,4.60327 -6.3667,4.91821 C-6.8986,5.23315 -7.16455,5.59359 -7.16455,5.99951 C-7.16455,6.25146 -7.02108,6.49292 -6.73413,6.72388 C-6.44718,6.95483 -6.05176,7.1578 -5.54785,7.33276 C-5.04395,7.50773 -4.45605,7.64421 -3.78418,7.74219 C-3.1123,7.84017 -2.40544,7.88916 -1.66357,7.88916 "/>
</g>

<g fill="#ef4b65" fill-opacity="1" stroke="none" transform="matrix(1,0,0,1,0,0)"
font-family="MS Shell Dlg 2" font-size="7.8" font-weight="400" font-style="normal" 
>
</g>
</g>
</svg>
